%
O1001
(T1 D=0.1181 CR=0. TAPER=90DEG - ZMIN=-0.0892 - SPOT DRILL)
(T2 D=0.0635 CR=0. TAPER=118DEG - ZMIN=-0.4521 - DRILL)
(T3 D=0.0787 CR=0. - ZMIN=-0.3858 - RIGHT HAND TAP)
(T4 D=0.0995 CR=0. TAPER=118DEG - ZMIN=-0.463 - DRILL)
(T5 D=0.1181 CR=0. - ZMIN=-0.374 - RIGHT HAND TAP)
(T6 D=0.1575 CR=0. TAPER=90DEG - ZMIN=-0.105 - SPOT DRILL)
(T7 D=0.1299 CR=0. TAPER=118DEG - ZMIN=-0.4721 - DRILL)
(T8 D=0.1575 CR=0. - ZMIN=-0.3504 - RIGHT HAND TAP)
(T9 D=0.1875 CR=0. TAPER=90DEG - ZMIN=-0.1227 - SPOT DRILL)
(T10 D=0.166 CR=0. TAPER=118DEG - ZMIN=-0.4829 - DRILL)
(T11 D=0.1969 CR=0. - ZMIN=-0.3386 - RIGHT HAND TAP)
(T12 D=0.2362 CR=0. TAPER=90DEG - ZMIN=-0.1494 - SPOT DRILL)
(T13 D=0.199 CR=0. TAPER=118DEG - ZMIN=-0.4929 - DRILL)
(T14 D=0.2362 CR=0. - ZMIN=-0.315 - RIGHT HAND TAP)
(T15 D=0.25 CR=0. TAPER=90DEG - ZMIN=-0.1582 - SPOT DRILL)
(T16 D=0.238 CR=0. TAPER=118DEG - ZMIN=-0.5046 - DRILL)
(T17 D=0.2756 CR=0. - ZMIN=-0.315 - RIGHT HAND TAP)
(T18 D=0.3125 CR=0. TAPER=90DEG - ZMIN=-0.1728 - SPOT DRILL)
(T19 D=0.2677 CR=0. TAPER=118DEG - ZMIN=-0.5135 - DRILL)
(T20 D=0.315 CR=0. - ZMIN=-0.2854 - RIGHT HAND TAP)
(T21 D=0.315 CR=0. TAPER=90DEG - ZMIN=-0.1925 - SPOT DRILL)
(T22 D=0.3071 CR=0. TAPER=118DEG - ZMIN=-0.5253 - DRILL)
(T23 D=0.375 CR=0. TAPER=90DEG - ZMIN=-0.2091 - SPOT DRILL)
(T24 D=0.3346 CR=0. TAPER=118DEG - ZMIN=-0.5336 - DRILL)
(T25 D=0.3937 CR=0. - ZMIN=-0.2559 - RIGHT HAND TAP)
(T26 D=0.201 CR=0. TAPER=118DEG - ZMIN=-0.4935 - DRILL)
(T27 D=0.25 CR=0. - ZMIN=-0.2831 - RIGHT HAND TAP)
(T28 D=0.2205 CR=0. TAPER=118DEG - ZMIN=-0.4993 - DRILL)
(T29 D=0.25 CR=0. - ZMIN=-0.3393 - RIGHT HAND TAP)
(T30 D=0.2598 CR=0. TAPER=118DEG - ZMIN=-0.5111 - DRILL)
(T31 D=0.339 CR=0. TAPER=118DEG - ZMIN=-0.5349 - DRILL)
N10 G90 G94 G17 G49 G40 G80
N15 G20
N20 G28 G91 Z0.
N25 G90

(SPOTDRILL - SPOTDRILL DRILL TAP 9)
N30 T23 M06
N35 S10186 M03
N40 G54
N45 M08
N50 G00 X8.0315 Y-7.874
N55 G43 Z0.5906 H23
N60 G00 Z0.1969
N65 G98 G81 X8.0315 Y-7.874 Z-0.2072 R0.1575 F53.2
N70 G80
N75 Z0.5906

(SPOTDRILL - SPOTDRILL DRILL TAP 13)
N80 G00 X-1.9094 Y-5.9055
N85 Z0.5906
N90 Z0.1969
N95 G81 X-1.9094 Y-5.9055 Z-0.2091 R0.1575 F53.2
N100 G80
N105 Z0.5906
N110 M05
N115 G28 G91 Z0.
N120 G90
N125 G49

(DRILL - SPOTDRILL DRILL TAP 13)
N130 M09
N135 M01
N140 T31 M06
N145 S3380 M03
N150 G54
N155 M08
N160 G00 X-1.9094 Y-5.9055
N165 G43 Z0.5906 H31
N170 G00 Z0.1969
N175 G73 X-1.9094 Y-5.9055 Z-0.5349 R0.1575 Q0.0848 F17.2
N180 G80
N185 Z0.5906
N190 M05
N195 G28 G91 Z0.
N200 G90
N205 G49

(DRILL - SPOTDRILL DRILL TAP 9)
N210 M09
N215 M01
N220 T24 M06
N225 S3424 M03
N230 G54
N235 M08
N240 G00 X8.0315 Y-7.874
N245 G43 Z0.5906 H24
N250 G00 Z0.1969
N255 G73 X8.0315 Y-7.874 Z-0.5336 R0.1575 Q0.0837 F17.2
N260 G80
N265 Z0.5906
N270 M05
N275 G28 G91 Z0.
N280 G90
N285 G49

(TAP - SPOTDRILL DRILL TAP 9)
N290 M09
N295 M01
N300 T25 M06
N305 S500 M03
N310 G54
N315 M08
N320 G00 X8.0315 Y-7.874
N325 G43 Z0.5906 H25
N330 G00 Z0.1969
N335 M29 S500
N340 G84 X8.0315 Y-7.874 Z-0.2559 R0.1575 P0 F29.5
N345 G80
N350 Z0.5906
N355 M05
N360 G28 G91 Z0.
N365 G90
N370 G49

(SPOTDRILL - SPOTDRILL DRILL TAP 8)
N375 M09
N380 M01
N385 T21 M06
N390 S12000 M03
N395 G54
N400 M08
N405 G00 X6.0433 Y-7.874
N410 G43 Z0.5906 H21
N415 G00 Z0.1969
N420 G81 X6.0433 Y-7.874 Z-0.1925 R0.1575 F52.7
N425 G80
N430 Z0.5906
N435 M05
N440 G28 G91 Z0.
N445 G90
N450 G49

(DRILL - SPOTDRILL DRILL TAP 8)
N455 M09
N460 M01
N465 T22 M06
N470 S3732 M03
N475 G54
N480 M08
N485 G00 X6.0433 Y-7.874
N490 G43 Z0.5906 H22
N495 G00 Z0.1969
N500 G73 X6.0433 Y-7.874 Z-0.5253 R0.1575 Q0.0768 F17.2
N505 G80
N510 Z0.5906
N515 M05
N520 G28 G91 Z0.
N525 G90
N530 G49

(SPOTDRILL - SPOTDRILL DRILL TAP 7)
N535 M09
N540 M01
N545 T18 M06
N550 S11999 M03
N555 G54
N560 M08
N565 G00 X4.0551 Y-7.874
N570 G43 Z0.5906 H18
N575 G00 Z0.1969
N580 G81 X4.0551 Y-7.874 Z-0.1728 R0.1575 F52.3
N585 G80
N590 Z0.5906

(SPOTDRILL - SPOTDRILL DRILL TAP 12)
N595 G00 X-3.8976 Y-5.9055
N600 Z0.5906
N605 Z0.1969
N610 G81 X-3.8976 Y-5.9055 Z-0.1686 R0.1575 F52.3
N615 G80
N620 Z0.5906
N625 M05
N630 G28 G91 Z0.
N635 G90
N640 G49

(DRILL - SPOTDRILL DRILL TAP 12)
N645 M09
N650 M01
N655 T30 M06
N660 S4410 M03
N665 G54
N670 M08
N675 G00 X-3.8976 Y-5.9055
N680 G43 Z0.5906 H30
N685 G00 Z0.1969
N690 G73 X-3.8976 Y-5.9055 Z-0.5111 R0.1575 Q0.065 F17.2
N695 G80
N700 Z0.5906
N705 M05
N710 G28 G91 Z0.
N715 G90
N720 G49

(DRILL - SPOTDRILL DRILL TAP 7)
N725 M09
N730 M01
N735 T19 M06
N740 S4280 M03
N745 G54
N750 M08
N755 G00 X4.0551 Y-7.874
N760 G43 Z0.5906 H19
N765 G00 Z0.1969
N770 G73 X4.0551 Y-7.874 Z-0.5135 R0.1575 Q0.0669 F17.2
N775 G80
N780 Z0.5906
N785 M05
N790 G28 G91 Z0.
N795 G90
N800 G49

(TAP - SPOTDRILL DRILL TAP 7)
N805 M09
N810 M01
N815 T20 M06
N820 S500 M03
N825 G54
N830 M08
N835 G00 X4.0551 Y-7.874
N840 G43 Z0.5906 H20
N845 G00 Z0.1969
N850 M29 S500
N855 G84 X4.0551 Y-7.874 Z-0.2854 R0.1575 P0 F24.6
N860 G80
N865 Z0.5906
N870 M05
N875 G28 G91 Z0.
N880 G90
N885 G49

(SPOTDRILL - SPOTDRILL DRILL TAP 6)
N890 M09
N895 M01
N900 T15 M06
N905 S11999 M03
N910 G54
N915 M08
N920 G00 X2.0669 Y-7.874
N925 G43 Z0.5906 H15
N930 G00 Z0.1969
N935 G81 X2.0669 Y-7.874 Z-0.1582 R0.1575 F41.9
N940 G80
N945 Z0.5906
N950 M05
N955 G28 G91 Z0.
N960 G90
N965 G49

(DRILL - SPOTDRILL DRILL TAP 6)
N970 M09
N975 M01
N980 T16 M06
N985 S4815 M03
N990 G54
N995 M08
N1000 G00 X2.0669 Y-7.874
N1005 G43 Z0.5906 H16
N1010 G00 Z0.1969
N1015 G73 X2.0669 Y-7.874 Z-0.5046 R0.1575 Q0.0595 F17.2
N1020 G80
N1025 Z0.5906
N1030 M05
N1035 G28 G91 Z0.
N1040 G90
N1045 G49

(TAP - SPOTDRILL DRILL TAP 6)
N1050 M09
N1055 M01
N1060 T17 M06
N1065 S500 M03
N1070 G54
N1075 M08
N1080 G00 X2.0669 Y-7.874
N1085 G43 Z0.5906 H17
N1090 G00 Z0.1969
N1095 M29 S500
N1100 G84 X2.0669 Y-7.874 Z-0.315 R0.1575 P0 F19.7
N1105 G80
N1110 Z0.5906
N1115 M05
N1120 G28 G91 Z0.
N1125 G90
N1130 G49

(SPOTDRILL - SPOTDRILL DRILL TAP 5)
N1135 M09
N1140 M01
N1145 T12 M06
N1150 S12000 M03
N1155 G54
N1160 M08
N1165 G00 X0.0787 Y-7.874
N1170 G43 Z0.5906 H12
N1175 G00 Z0.1969
N1180 G81 X0.0787 Y-7.874 Z-0.1385 R0.1575 F39.6
N1185 G80
N1190 Z0.5906

(SPOTDRILL - SPOTDRILL DRILL TAP 10)
N1195 G00 X-7.874 Y-5.9055
N1200 Z0.5906
N1205 Z0.1969
N1210 G81 X-7.874 Y-5.9055 Z-0.1401 R0.1575 F39.6
N1215 G80
N1220 Z0.5906

(SPOTDRILL - SPOTDRILL DRILL TAP 11)
N1225 G00 X-5.8858 Y-5.9055
N1230 Z0.5906
N1235 Z0.1969
N1240 G81 X-5.8858 Y-5.9055 Z-0.1494 R0.1575 F39.6
N1245 G80
N1250 Z0.5906
N1255 M05
N1260 G28 G91 Z0.
N1265 G90
N1270 G49

(DRILL - SPOTDRILL DRILL TAP 11)
N1275 M09
N1280 M01
N1285 T28 M06
N1290 S5198 M03
N1295 G54
N1300 M08
N1305 G00 X-5.8858 Y-5.9055
N1310 G43 Z0.5906 H28
N1315 G00 Z0.1969
N1320 G73 X-5.8858 Y-5.9055 Z-0.4993 R0.1575 Q0.0551 F17.2
N1325 G80
N1330 Z0.5906
N1335 M05
N1340 G28 G91 Z0.
N1345 G90
N1350 G49

(TAP - SPOTDRILL DRILL TAP 11)
N1355 M09
N1360 M01
N1365 T29 M06
N1370 S500 M03
N1375 G54
N1380 M08
N1385 G00 X-5.8858 Y-5.9055
N1390 G43 Z0.5906 H29
N1395 G00 Z0.1969
N1400 M29 S500
N1405 G84 X-5.8858 Y-5.9055 Z-0.3393 R0.1575 P0 F15.6
N1410 G80
N1415 Z0.5906
N1420 M05
N1425 G28 G91 Z0.
N1430 G90
N1435 G49

(DRILL - SPOTDRILL DRILL TAP 10)
N1440 M09
N1445 M01
N1450 T26 M06
N1455 S5701 M03
N1460 G54
N1465 M08
N1470 G00 X-7.874 Y-5.9055
N1475 G43 Z0.5906 H26
N1480 G00 Z0.1969
N1485 G73 X-7.874 Y-5.9055 Z-0.4935 R0.1575 Q0.0503 F17.2
N1490 G80
N1495 Z0.5906
N1500 M05
N1505 G28 G91 Z0.
N1510 G90
N1515 G49

(TAP - SPOTDRILL DRILL TAP 10)
N1520 M09
N1525 M01
N1530 T27 M06
N1535 S500 M03
N1540 G54
N1545 M08
N1550 G00 X-7.874 Y-5.9055
N1555 G43 Z0.5906 H27
N1560 G00 Z0.1969
N1565 M29 S500
N1570 G84 X-7.874 Y-5.9055 Z-0.2831 R0.1575 P0 F25.
N1575 G80
N1580 Z0.5906
N1585 M05
N1590 G28 G91 Z0.
N1595 G90
N1600 G49

(DRILL - SPOTDRILL DRILL TAP 5)
N1605 M09
N1610 M01
N1615 T13 M06
N1620 S5758 M03
N1625 G54
N1630 M08
N1635 G00 X0.0787 Y-7.874
N1640 G43 Z0.5906 H13
N1645 G00 Z0.1969
N1650 G73 X0.0787 Y-7.874 Z-0.4929 R0.1575 Q0.0497 F17.2
N1655 G80
N1660 Z0.5906
N1665 M05
N1670 G28 G91 Z0.
N1675 G90
N1680 G49

(TAP - SPOTDRILL DRILL TAP 5)
N1685 M09
N1690 M01
N1695 T14 M06
N1700 S500 M03
N1705 G54
N1710 M08
N1715 G00 X0.0787 Y-7.874
N1720 G43 Z0.5906 H14
N1725 G00 Z0.1969
N1730 M29 S500
N1735 G84 X0.0787 Y-7.874 Z-0.315 R0.1575 P0 F19.7
N1740 G80
N1745 Z0.5906
N1750 M05
N1755 G28 G91 Z0.
N1760 G90
N1765 G49

(SPOTDRILL - SPOTDRILL DRILL TAP 4)
N1770 M09
N1775 M01
N1780 T9 M06
N1785 S11999 M03
N1790 G54
N1795 M08
N1800 G00 X-1.9094 Y-7.874
N1805 G43 Z0.5906 H09
N1810 G00 Z0.1969
N1815 G81 X-1.9094 Y-7.874 Z-0.1227 R0.1575 F31.5
N1820 G80
N1825 Z0.5906
N1830 M05
N1835 G28 G91 Z0.
N1840 G90
N1845 G49

(DRILL - SPOTDRILL DRILL TAP 4)
N1850 M09
N1855 M01
N1860 T10 M06
N1865 S6903 M03
N1870 G54
N1875 M08
N1880 G00 X-1.9094 Y-7.874
N1885 G43 Z0.5906 H10
N1890 G00 Z0.1969
N1895 Z0.1575
N1900 Z0.0406
N1905 G01 Z-0.0809 F17.2
N1910 G00 Z-0.0769
N1915 G01 Z-0.1224 F17.2
N1920 G00 Z-0.1184
N1925 G01 Z-0.1639 F17.2
N1930 G00 Z-0.1599
N1935 G01 Z-0.2054 F17.2
N1940 G00 Z-0.2014
N1945 G01 Z-0.2469 F17.2
N1950 G00 Z-0.2429
N1955 G01 Z-0.2884 F17.2
N1960 G00 Z-0.2844
N1965 G01 Z-0.3299 F17.2
N1970 G00 Z-0.3259
N1975 G01 Z-0.3714 F17.2
N1980 G00 Z-0.3674
N1985 G01 Z-0.4129 F17.2
N1990 G00 Z-0.4089
N1995 G01 Z-0.4544 F17.2
N2000 G00 Z-0.4504
N2005 G01 Z-0.4829 F17.2
N2010 G00 Z0.1969
N2015 Z0.5906
N2020 M05
N2025 G28 G91 Z0.
N2030 G90
N2035 G49

(TAP - SPOTDRILL DRILL TAP 4)
N2040 M09
N2045 M01
N2050 T11 M06
N2055 S500 M03
N2060 G54
N2065 M08
N2070 G00 X-1.9094 Y-7.874
N2075 G43 Z0.5906 H11
N2080 G00 Z0.1969
N2085 M29 S500
N2090 G84 X-1.9094 Y-7.874 Z-0.3386 R0.1575 P0 F15.7
N2095 G80
N2100 Z0.5906
N2105 M05
N2110 G28 G91 Z0.
N2115 G90
N2120 G49

(SPOTDRILL - SPOTDRILL DRILL TAP 3)
N2125 M09
N2130 M01
N2135 T6 M06
N2140 S12000 M03
N2145 G54
N2150 M08
N2155 G00 X-3.8976 Y-7.874
N2160 G43 Z0.5906 H06
N2165 G00 Z0.1969
N2170 G81 X-3.8976 Y-7.874 Z-0.105 R0.1575 F26.5
N2175 G80
N2180 Z0.5906
N2185 M05
N2190 G28 G91 Z0.
N2195 G90
N2200 G49

(DRILL - SPOTDRILL DRILL TAP 3)
N2205 M09
N2210 M01
N2215 T7 M06
N2220 S8820 M03
N2225 G54
N2230 M08
N2235 G00 X-3.8976 Y-7.874
N2240 G43 Z0.5906 H07
N2245 G00 Z0.1969
N2250 Z0.1575
N2255 Z0.0406
N2260 G01 Z-0.0719 F17.2
N2265 G00 Z-0.0679
N2270 G01 Z-0.1043 F17.2
N2275 G00 Z-0.1004
N2280 G01 Z-0.1368 F17.2
N2285 G00 Z-0.1329
N2290 G01 Z-0.1693 F17.2
N2295 G00 Z-0.1654
N2300 G01 Z-0.2018 F17.2
N2305 G00 Z-0.1978
N2310 G01 Z-0.2343 F17.2
N2315 G00 Z-0.2303
N2320 G01 Z-0.2667 F17.2
N2325 G00 Z-0.2628
N2330 G01 Z-0.2992 F17.2
N2335 G00 Z-0.2953
N2340 G01 Z-0.3317 F17.2
N2345 G00 Z-0.3278
N2350 G01 Z-0.3642 F17.2
N2355 G00 Z-0.3602
N2360 G01 Z-0.3967 F17.2
N2365 G00 Z-0.3927
N2370 G01 Z-0.4291 F17.2
N2375 G00 Z0.1969
N2380 Z-0.3491
N2385 G01 Z-0.4616 F17.2
N2390 G00 Z-0.4577
N2395 G01 Z-0.4721 F17.2
N2400 G00 Z0.1969
N2405 Z0.5906
N2410 M05
N2415 G28 G91 Z0.
N2420 G90
N2425 G49

(TAP - SPOTDRILL DRILL TAP 3)
N2430 M09
N2435 M01
N2440 T8 M06
N2445 S500 M03
N2450 G54
N2455 M08
N2460 G00 X-3.8976 Y-7.874
N2465 G43 Z0.5906 H08
N2470 G00 Z0.1969
N2475 M29 S500
N2480 G84 X-3.8976 Y-7.874 Z-0.3504 R0.1575 P0 F13.8
N2485 G80
N2490 Z0.5906
N2495 M05
N2500 G28 G91 Z0.
N2505 G90
N2510 G49

(SPOTDRILL - SPOTDRILL DRILL TAP)
N2515 M09
N2520 M01
N2525 T1 M06
N2530 S12000 M03
N2535 G54
N2540 M08
N2545 G00 X-7.874 Y-7.874
N2550 G43 Z0.5906 H01
N2555 G00 Z0.1969
N2560 G81 X-7.874 Y-7.874 Z-0.0713 R0.1575 F20.
N2565 G80
N2570 Z0.5906

(SPOTDRILL - SPOTDRILL DRILL TAP 2)
N2575 G00 X-5.8858 Y-7.874
N2580 Z0.5906
N2585 Z0.1969
N2590 G81 X-5.8858 Y-7.874 Z-0.0892 R0.1575 F20.
N2595 G80
N2600 Z0.5906
N2605 M05
N2610 G28 G91 Z0.
N2615 G90
N2620 G49

(DRILL - SPOTDRILL DRILL TAP 2)
N2625 M09
N2630 M01
N2635 T4 M06
N2640 S11517 M03
N2645 G54
N2650 M08
N2655 G00 X-5.8858 Y-7.874
N2660 G43 Z0.5906 H04
N2665 G00 Z0.1969
N2670 Z0.1575
N2675 Z0.0406
N2680 G01 Z-0.0642 F17.2
N2685 G00 Z-0.0603
N2690 G01 Z-0.0891 F17.2
N2695 G00 Z-0.0852
N2700 G01 Z-0.114 F17.2
N2705 G00 Z-0.1101
N2710 G01 Z-0.1389 F17.2
N2715 G00 Z-0.1349
N2720 G01 Z-0.1637 F17.2
N2725 G00 Z-0.1598
N2730 G01 Z-0.1886 F17.2
N2735 G00 Z-0.1847
N2740 G01 Z-0.2135 F17.2
N2745 G00 Z-0.2096
N2750 G01 Z-0.2384 F17.2
N2755 G00 Z-0.2344
N2760 G01 Z-0.2632 F17.2
N2765 G00 Z-0.2593
N2770 G01 Z-0.2881 F17.2
N2775 G00 Z-0.2842
N2780 G01 Z-0.313 F17.2
N2785 G00 Z-0.3091
N2790 G01 Z-0.3379 F17.2
N2795 G00 Z0.1969
N2800 Z-0.2579
N2805 G01 Z-0.3627 F17.2
N2810 G00 Z-0.3588
N2815 G01 Z-0.3876 F17.2
N2820 G00 Z-0.3837
N2825 G01 Z-0.4125 F17.2
N2830 G00 Z-0.4086
N2835 G01 Z-0.4374 F17.2
N2840 G00 Z-0.4334
N2845 G01 Z-0.4622 F17.2
N2850 G00 Z-0.4583
N2855 G01 Z-0.463 F17.2
N2860 G00 Z0.1969
N2865 Z0.5906
N2870 M05
N2875 G28 G91 Z0.
N2880 G90
N2885 G49

(TAP - SPOTDRILL DRILL TAP 2)
N2890 M09
N2895 M01
N2900 T5 M06
N2905 S500 M03
N2910 G54
N2915 M08
N2920 G00 X-5.8858 Y-7.874
N2925 G43 Z0.5906 H05
N2930 G00 Z0.1969
N2935 M29 S500
N2940 G84 X-5.8858 Y-7.874 Z-0.374 R0.1575 P0 F9.8
N2945 G80
N2950 Z0.5906
N2955 M05
N2960 G28 G91 Z0.
N2965 G90
N2970 G49

(DRILL - SPOTDRILL DRILL TAP)
N2975 M09
N2980 M01
N2985 T2 M06
N2990 S11999 M03
N2995 G54
N3000 M08
N3005 G00 X-7.874 Y-7.874
N3010 G43 Z0.5906 H02
N3015 G00 Z0.1969
N3020 Z0.1575
N3025 Z0.0406
N3030 G01 Z-0.0552 F11.4
N3035 G00 Z-0.0513
N3040 G01 Z-0.0711 F11.4
N3045 G00 Z-0.0672
N3050 G01 Z-0.087 F11.4
N3055 G00 Z-0.0831
N3060 G01 Z-0.1029 F11.4
N3065 G00 Z-0.0989
N3070 G01 Z-0.1187 F11.4
N3075 G00 Z-0.1148
N3080 G01 Z-0.1346 F11.4
N3085 G00 Z-0.1307
N3090 G01 Z-0.1505 F11.4
N3095 G00 Z-0.1466
N3100 G01 Z-0.1664 F11.4
N3105 G00 Z-0.1624
N3110 G01 Z-0.1822 F11.4
N3115 G00 Z-0.1783
N3120 G01 Z-0.1981 F11.4
N3125 G00 Z-0.1942
N3130 G01 Z-0.214 F11.4
N3135 G00 Z0.1969
N3140 Z-0.134
N3145 G01 Z-0.2299 F11.4
N3150 G00 Z-0.2259
N3155 G01 Z-0.2457 F11.4
N3160 G00 Z-0.2418
N3165 G01 Z-0.2616 F11.4
N3170 G00 Z-0.2577
N3175 G01 Z-0.2775 F11.4
N3180 G00 Z-0.2736
N3185 G01 Z-0.2934 F11.4
N3190 G00 Z-0.2894
N3195 G01 Z-0.3092 F11.4
N3200 G00 Z-0.3053
N3205 G01 Z-0.3251 F11.4
N3210 G00 Z-0.3212
N3215 G01 Z-0.341 F11.4
N3220 G00 Z-0.3371
N3225 G01 Z-0.3569 F11.4
N3230 G00 Z-0.3529
N3235 G01 Z-0.3727 F11.4
N3240 G00 Z-0.3688
N3245 G01 Z-0.3886 F11.4
N3250 G00 Z0.1969
N3255 Z-0.3086
N3260 G01 Z-0.4045 F11.4
N3265 G00 Z-0.4006
N3270 G01 Z-0.4204 F11.4
N3275 G00 Z-0.4164
N3280 G01 Z-0.4362 F11.4
N3285 G00 Z-0.4323
N3290 G01 Z-0.4521 F11.4
N3295 G00 Z-0.4482
N3300 G01 Z-0.4521 F11.4
N3305 G00 Z0.1969
N3310 Z0.5906
N3315 M05
N3320 G28 G91 Z0.
N3325 G90
N3330 G49

(TAP - SPOTDRILL DRILL TAP)
N3335 M09
N3340 M01
N3345 T3 M06
N3350 S500 M03
N3355 G54
N3360 M08
N3365 G00 X-7.874 Y-7.874
N3370 G43 Z0.5906 H03
N3375 G00 Z0.1969
N3380 M29 S500
N3385 G84 X-7.874 Y-7.874 Z-0.3858 R0.1575 P0 F7.9
N3390 G80
N3395 Z0.5906

N3400 M09
N3405 G28 G91 Z0.
N3410 G90
N3415 G49
N3420 G28 G91 X0. Y0.
N3425 G90
N3430 M30
%
